X:1
T:Brandenburg Concerto No. 3 (opening theme)
C:Johann Sebastian Bach
M:4/4
L:1/8
Q:1/4=126
K:G
G2 AB cd BA | BG d2 c2 BA | G2 AB cd cB | AG G4 D2 |
G2 AB cd BA | BG AB cd cB | AG FG AG G2 | G8 |]
